X:1
T:The Number Of Pi Jig
M:6/8
L:1/8
R:jig
K:D
DBE BFC|CGF DFB|CAC DCD|BEG CGE|
w: 3 1 4 1 5 9  2 6 5 3 5 8  9 7 9 3 2 3  8 4 6 2 6 4  
DDB DCA|CFA CBB|EBC ABG|CDC CDA:||
w: 3 3 8 3 2 7  9 5 0 2 8 8  4 1 9 7 1 6  9 3 9 9 3 7  
|:FBA FBC|ACA ECE|EFC CDA|ABB GEA|
w: 5 1 0 5 8 2  0 9 7 4 9 4  4 5 9 2 3 0  7 8 1 6 4 0  
GCB GCA|BCC BGC|BAD EBC|FDE CBB:|
w: 6 2 8 6 2 0  8 9 9 8 6 2  8 0 3 4 8 2  5 3 4 2 1 1  
